X:1
T:Love divine, all loves excelling
T:BLAENWERN - Rowlands 1905
T:Charles Wesley (1747)
T:L4
T:ST MARY'S CATHEDRAL KUALA LUMPUR; 10:30 CHOIR. PUBLIC DOMAIN. Based on a score from Hymnary.org.
T:ST MARY'S CATHEDRAL KUALA LUMPUR; 10:30 CHOIR. PUBLIC DOMAIN. Based on a score from Hymnary.org.
Z:ST MARY'S CATHEDRAL KUALA LUMPUR; 10:30 CHOIR. PUBLIC DOMAIN. Based on a score from Hymnary.org.
%%score ( 1 2 ) ( 3 4 )
L:1/8
M:6/4
K:G
V:1 treble nm="SOPRANO ALTO"
V:2 treble 
V:3 bass nm="TENOR BASS"
V:4 bass 
V:1
"^Verse 2* is not in our hymnal; include it as verse 2 only when non-congregational (unless printed in bulletin)" D4 D2 E4 E2 | %1
w: 1.Love di- vine, all|
w: 3.Come, al- mi- ghty|
w: 4.Fi- nish then thy|
w: 2*.Breathe! O Breathe thy|
 (D2 G2) B2 B4 A2 | G4 F2 E4 =D2 | (D2 F2) E2 D6 | D4 D2 E4 E2 | (D2 G2) B2 B4 A2 | G4 A2 | %7
w: loves * ex- cel- ling,|joy of heaven, to|earth * come down,|fix in us thy|hum- * ble dwell- ing,|all thy|
w: to * de- li- ver,|let us all thy|gra- ce re- ceive;|sud- den- ly re-|turn * and ne- ver,|ne- ver|
w: new * cre- a- tion,|pure and spot- less|let * us be;|let us see thy|great * sal- va- tion,|per- fect-|
w: love- * ly Spi- rit,|in- to ev''- ry|trou- * bled breast;|Let us all in|thee * in- he- rit,|let us|
 (B2 c2) A2 | G4 F2 G6 | B4 B2 (B2 G2) B2 | (c2 B2) A2 B4 B2 | d4 d2 (d2 B2) d2 | e2 d2 ^c2 d6 | %13
w: faith- * ful|mer- cies crown.|Je- su, thou * art|all * com- pass- ion,|pure un- boun- * ded|lo- ve thou art;|
w: more * thy|tem- ples leave.|Thee we would * be|al- * ways bles- sing,|serve thee as * thy|ho- sts a- bove;|
w: ly * re-|stored in thee;|Changed from glo- * ry|in- * to glo- ry|till in hea- ven we|ta- ke our place|
w: find * thy|pro- mised rest;|Take a- way * all|power * of sin- ning,|Al- pha and * O-|me- * ga be;|
 e4 c2 d4 B2 | (d2 c2) B2 B4 A2 | G4 A2 (B2 c2) A2 | G4 F2 G6 |] %17
w: vi- sit us with|thy * com- pa- ssion|en- ter e- * very|trem- bling heart.|
w: pray, and praise thee,|with- * out cea- sing,|glo- ry in * thy|per- fect love.|
w: till we cast our|crowns * be- fore thee,|lost in won- * der,|love, and praise.|
w: End of faith as|its * be- gin- ning,|set our hearts * at|lib- er- ty!|
V:2
 B,4 B,2 C4 C2 | (B,2 D2) D2 D4 D2 | (B,2 E2) ^D2 E4 B,2 | (A,2 D2) ^C2 D6 | B,4 B,2 C4 C2 | %5
 (B,2 D2) D2 D4 D2 | (B,2 E2) F2 | G4 E2 | D4 D2 D6 | D4 ^D2 E4 G2 | G4 F2 G4 G2 | G4 F2 G4 A2 | %12
 G2 F2 EG F6 | G4 F2 G4 G2 | A4 G2 G4 F2 | G4 F2 G4 E2 | D4 D2 D6 |] %17
V:3
 G,4 G,2 G,4 G,2 | (G,2 B,2) G,2 G,4 F,2 | (G,2 B,2) A,2 G,4 G,2 | (F,2 A,2) G,2 F,6 | %4
 G,4 G,2 G,4 G,2 | (G,2 B,2) G,2 G,4 F,2 | (G,2 B,2) D2 | (D2 E2) C2 | B,4 A,C B,6 | %9
 B,4 A,2 (G,2 B,2) D2 | (E2 D2) D2 D4 D2 | D4 C2 (B,2 D2) A,2 | (B,2 A,2) A,2 A,6 | C4 C2 B,4 D2 | %14
 D4 D2 D4 D2 | (D2 E2) C2 (D2 G,2) C2 | B,4 A,C B,6 |] %17
V:4
 G,,4 G,,2 G,,4 G,,2 | G,,4 G,,2 D,4 D,2 | E,4 B,,2 C,4 G,,2 | A,,4 A,,2 D,6 | G,,4 G,,2 C,4 C,2 | %5
 G,,4 G,,2 D,4 D,2 | E,4 D,2 | (G,2 C,2) C,2 | D,4 D,2 G,6 | G,4 F,2 E,4 D,2 | %10
 (C,2 D,2) D,2 G,4 G,2 | B,4 A,2 G,4 F,2 | (E,2 A,2) A,,2 D,6 | C4 A,2 B,4 G,2 | F,4 G,2 D,4 D,2 | %15
 (B,2 C2) A,2 (G,2 E,2) C,2 | D,4 D,2 G,,6 |] %17

